MonoIcons/scalable/status/semi-starred-symbolic.svg

<?xml version="1.0" encoding="UTF-8"?>
<svg height="16px" viewBox="0 0 16 16" width="16px" xmlns="http://www.w3.org/2000/svg">
    <path d="m 8.003906 0 c -0.433594 0 -0.816406 0.277344 -0.953125 0.683594 l -1.449219 4.339844 l -4.589843 -0.015626 c -0.9843752 -0.007812 -1.386719 1.253907 -0.582031 1.816407 l 3.628906 2.558593 l -1.5 4.285157 c -0.316406 0.902343 0.6875 1.691406 1.488281 1.171875 l 4.003906 -2.59375 l 3.898438 2.585937 c 0.796875 0.53125 1.808593 -0.257812 1.496093 -1.164062 l -1.503906 -4.289063 l 3.644532 -2.574218 c 0.789062 -0.5625 0.394531 -1.808594 -0.574219 -1.8125 l -4.660157 -0.015626 l -1.402343 -4.285156 c -0.132813 -0.410156 -0.515625 -0.68749975 -0.945313 -0.68749975 z m -0.003906 4.210938 l 0.675781 2.070312 c 0.132813 0.410156 0.515625 0.691406 0.945313 0.695312 l 2.253906 0.007813 l -1.703125 1.199219 c -0.363281 0.257812 -0.511719 0.726562 -0.367187 1.148437 l 0.765624 2.191407 l -1.960937 -1.304688 c -0.203125 -0.058594 -0.40625 -0.109375 -0.609375 -0.164062 z m 0 0" fill="#2e3436"/>
</svg>

<svg width="16" height="16" viewBox="0 0 16 16" fill="none" xmlns="http://www.w3.org/2000/svg">
<g clip-path="url(#clip0_231_1021)">
<path d="M8.00385 0C7.57025 0 7.18744 0.277344 7.05072 0.683594L5.6015 5.02344L1.01166 5.00781C0.0272847 5 -0.375059 6.26172 0.429629 6.82422L4.05854 9.38281L2.55853 13.668C2.24213 14.5703 3.24603 15.3594 4.04682 14.8398L8.05072 12.2461L11.9492 14.832C12.746 15.3633 13.7578 14.5742 13.4453 13.668L11.9413 9.37891L15.5859 6.80469C16.3749 6.24219 15.9804 4.99609 15.0117 4.99219L10.3515 4.97656L8.94916 0.691406C8.81635 0.28125 8.43354 0.00390625 8.00385 0.00390625V0ZM7.99994 4.21094L8.67572 6.28125C8.80854 6.69141 9.19135 6.97266 9.62103 6.97656L11.8749 6.98438L10.1718 8.18359C9.80853 8.44141 9.6601 8.91016 9.80463 9.33203L10.5703 11.5234L8.60932 10.2188C8.40619 10.1602 8.20307 10.1094 7.99994 10.0547V4.21094Z" fill="#2E3436"/>
</g>
<defs>
<clipPath id="clip0_231_1021">
<rect width="16" height="16" fill="white"/>
</clipPath>
</defs>
</svg>
